!!!COM: Lasso
!!!OTL: Exspectatio Justorum
!!!OMV: Partie 1
**kern	**text	**kern	**text
*part2	*part2	*part1	*part1
*staff2	*staff2	*staff1	*staff1
*I"Altus	*	*I"Cantus	*
*clefC2	*	*clefG2	*
*k[b-]	*	*k[b-]	*
*F:	*	*F:	*
*M4/2	*	*M4/2	*
=1	=1	=1	=1
1.a	Ex-	0r	.
2a	-spe-	.	.
=2	=2	=2	=2
2a	-cta-	1r	.
2a	-ti-	.	.
2b-	-o	1dd.	Ex-
2g	ju-	.	.
=3	=3	=3	=3
2.b-	-sto-	.	.
.	.	2dd	-spe-
4a	.	.	.
4g	.	2dd	-cta-
4f	.	.	.
2g	.	2dd	-ti-
=4	=4	=4	=4
1d	-rum	2ff	-o
.	.	2dd	ju-
2r	.	2.ff	-sto-
2B-	lae-	.	.
.	.	4ee	.
=5	=5	=5	=5
4B-	-ti-	4dd	.
4A	.	4cc	.
4B-	.	2dd	.
4c	.	.	.
4d	.	1a	-rum
4e	.	.	.
4f	.	.	.
4g	.	.	.
=6	=6	=6	=6
4a	.	2r	.
4g	.	.	.
4a	.	2f	lae-
4b-	.	.	.
2cc	.	4f	-ti-
.	.	4e	.
2cc	-ti-	4f	.
.	.	4g	.
=7	=7	=7	=7
1f	-a,	4a	.
.	.	4b-	.
.	.	4cc	.
.	.	4dd	.
2r	.	4ee	.
.	.	4dd	.
2c	spes	4ee	.
.	.	4ff	.
=8	=8	=8	=8
4e	au-	2gg	.
4f	.	.	.
4g	.	2gg	-ti-
4e	.	.	.
4f	.	1cc	-a,
4e	.	.	.
4f	.	.	.
4g	.	.	.
=9	=9	=9	=9
4a	.	2r	.
4e	.	.	.
1f	.	2a	spes
.	.	4cc	au-
.	.	4dd	.
2c	-tem	4ee	.
.	.	4cc	.
=10	=10	=10	=10
2r	.	4dd	.
.	.	4cc	.
2B-	im-	4dd	.
.	.	4ee	.
2A	-pi-	4ff	.
.	.	4cc	.
4B-	-p-	1dd	.
4c	.	.	.
=11	=11	=11	=11
4d	.	.	.
4e	.	.	.
2f	.	2a	-tem
0d	-rum	2r	.
.	.	2b-	im-
=12	=12	=12	=12
.	.	2a	-pi-
.	.	4b-	-o-
.	.	4cc	.
2.b-	per-	4dd	.
.	.	4ee	.
.	.	2ff	.
4a	.	.	.
=13	=13	=13	=13
4b-	.	1dd	-rum
4g	.	.	.
2b-.	.	.	.
.	.	2.ff	per-
4a	.	.	.
4f	.	.	.
4g	.	4ee	.
=14	=14	=14	=14
4a	.	4ff	.
4b-	.	4dd	.
2a.	.	2ff	.
.	.	4ee	-i-
4f	.	4dd	.
2g	.	2dd.	.
=15	=15	=15	=15
1e	.	.	.
.	.	8ccL	.
.	.	8b-J	.
.	.	2cc	.
0d	-bit:	1dd	-bit:
=16	=16	=16	=16
.	.	2r	.
.	.	1ff	for-
2r	.	.	.
1a	for-	2ff	-ti-
=17	=17	=17	=17
.	.	1ff	-tu-
2a	-ti-	.	.
1a	-tu-	1ee	-do
=18	=18	=18	=18
1g	-do	2r	.
.	.	2gg.	sim-
2.b-	sim-	.	.
.	.	4ff	.
.	.	2ff.	.
4a	.	.	.
=19	=19	=19	=19
2.a	.	.	.
.	.	4ee	.
.	.	1ee	.
4g	.	.	.
2f	.	.	.
2f	-pli-	2dd	-pli-
=20	=20	=20	=20
2e	-cis	1ee	-cis
2c.	vi-	.	.
.	.	1gg	vi-
4d	.	.	.
4e	.	.	.
4f	.	.	.
=21	=21	=21	=21
4g	.	1dd	-a
4a	.	.	.
4b-	.	.	.
4g	.	.	.
2a	.	2.ff	Do-
1b-	-a	.	.
.	.	4ee	.
=22	=22	=22	=22
.	.	2dd	.
1a	Do-	2cc	-mi-
.	.	1b-	-ni,
2g	-mi-	.	.
=23	=23	=23	=23
0a	-ni,	2r	.
.	.	2a	et
.	.	4cc	pa-
.	.	4dd	.
.	.	4ee	.
.	.	4cc	.
=24	=24	=24	=24
2r	.	1ff	.
2d	et	.	.
4f	pa-	1cc	-vor
4g	.	.	.
4a	.	.	.
4f	.	.	.
=25	=25	=25	=25
1b-	.	2dd	his,
.	.	2g	qui
1f	-vor	2a	o-
.	.	2cc	-pe-
=26	=26	=26	=26
2g	his,	2.b-	-ran-
2d	qui	.	.
.	.	8aL	.
.	.	8b-J	.
2e	o-	2cc	.
2g	-pe-	2b-	-tur,
=27	=27	=27	=27
2.f	-ran-	2r	.
.	.	2cc	qui
8eL	.	.	.
8fJ	.	.	.
2g	.	2b-	o-
2f	-tur,	2a	-pe-
=28	=28	=28	=28
2r	.	1dd	-ran-
2f	qui	.	.
2e	o-	2cc	-tur
2d	-pe-	2b-.	ma-
=29	=29	=29	=29
1g	-ran-	.	.
.	.	4a	.
.	.	4b-	.
.	.	4cc	.
1f	-tur	4dd	.
.	.	4ee	.
.	.	2ff.	.
=30	=30	=30	=30
2.g	ma-	.	.
.	.	4ee	.
.	.	2ee.	.
4a	.	.	.
2.f	.	.	.
.	.	4dd	.
.	.	2dd.	.
4g	.	.	.
=31	=31	=31	=31
2.e	.	.	.
.	.	4cc	.
.	.	2cc.	.
4f	.	.	.
2.d	.	.	.
.	.	4b-	.
.	.	2b-.	.
4e-X	.	.	.
=32	=32	=32	=32
2.c	.	.	.
.	.	4a	.
.	.	2a.	.
4d	.	.	.
1B-	.	.	.
.	.	8gL	.
.	.	8fJ	.
.	.	2g	.
=33	=33	=33	=33
0A	-lum.	0a	-lum.
==	==	==	==
*-	*-	*-	*-
!!!system-decoration: s1,s2